img/svg/css-icon.svg

<svg width="120" height="120" viewBox="0 0 120 120" fill="none" xmlns="http://www.w3.org/2000/svg">
<path d="M22.1325 102.004L13.71 7.5H106.29L97.8563 101.989L59.9438 112.5L22.1325 102.004Z" fill="#1572B6"/>
<path d="M60 104.468L90.6375 95.9738L97.845 15.2288H60V104.468Z" fill="#33A9DC"/>
<path d="M60 49.4662H75.3375L76.395 37.5975H60V26.0062H60.0412H89.0625L88.785 29.115L85.9387 61.0575H60V49.4662Z" fill="white"/>
<path d="M60.0713 79.5675L60.0188 79.5825L47.1113 76.095L46.2863 66.8513H40.0125H34.65L36.2738 85.05L60.015 91.6425L60.0713 91.6275V79.5675Z" fill="#EBEBEB"/>
<path d="M74.3513 60.5662L72.9563 76.0875L60.03 79.575V91.635L83.79 85.05L83.9663 83.0925L85.98 60.5662H74.3513Z" fill="white"/>
<path d="M60.0413 26.0062V33.2062V37.5675V37.5975H32.0813H32.0438L31.8113 34.9912L31.2825 29.115L31.005 26.0062H60.0413Z" fill="#EBEBEB"/>
<path d="M60 49.4662V56.6662V61.0275V61.0575H47.2913H47.2538L47.0212 58.4512L46.4963 52.575L46.2188 49.4662H60Z" fill="#EBEBEB"/>
</svg>

<svg width="120" height="120" fill="none" xmlns="http://www.w3.org/2000/svg"><path d="M22.133 102.004L13.71 7.5h92.58l-8.434 94.489L59.944 112.5l-37.812-10.496z" fill="#1572B6"/><path d="M60 104.468l30.638-8.494 7.207-80.745H60v89.239z" fill="#33A9DC"/><path d="M60 49.466h15.338l1.057-11.869H60v-11.59h29.063l-.278 3.108-2.846 31.942H60v-11.59z" fill="#fff"/><path d="M60.071 79.567l-.052.016-12.908-3.488-.825-9.244H34.65l1.624 18.199 23.741 6.593.056-.016v-12.06z" fill="#EBEBEB"/><path d="M74.351 60.566l-1.395 15.522-12.926 3.487v12.06l23.76-6.585.176-1.957 2.014-22.527H74.351z" fill="#fff"/><path d="M60.041 26.006v11.591H32.044l-.233-2.606-.529-5.876-.277-3.109h29.036zM60 49.466v11.592H47.254l-.233-2.607-.525-5.876-.277-3.109H60z" fill="#EBEBEB"/></svg>
